!!!COM: Bach, Johann Sebastian
!!!OPR: Joh. Seb. Bachs vierstimmige Choralgesänge
!!!XEN: Four-part Chorales
!!!OTL: 49. Ein' feste Burg ist unser Gott
!!!SCT: BWV 302
!!!SCA: Thematisch-systematisches Verzeichnis der musikalischen Werke Johann Sebastian Bach: Bach-Werke-Verzeichnis (Schmieder)
!!!YOR: Bach Gesellschaft Edition xxxix
!!!ENC: Steven Rasmussen
!!!CDT: 1685/3//-1750/7/28/
!!!OCY: Deutschland
!!!YEC: Copyright (c) 1994, 2000 Center for Computer Assisted Research in the Humanities
!!!YEM: Rights to all derivative editions reserved
!!!YEN: United States of America
**kern	**kern	**kern	**kern	**silbe
*I:[BASSO]	*I:[TENORE]	*I:[ALTO]	*I:[SOPRANO]	*I:[SOPRANO]
*>[A,A,B]	*>[A,A,B]	*>[A,A,B]	*>[A,A,B]	*
*>A	*>A	*>A	*>A	*
*clefF4	*clefGv2	*clefG2	*clefG2	*
*k[f#c#]	*k[f#c#]	*k[f#c#]	*k[f#c#]	*
*D:	*D:	*D:	*D:	*
*M4/4	*M4/4	*M4/4	*M4/4	*
8dL	4f#	4a	4dd	Ein'Er
8c#J	.	.	.	.
=1	=1	=1	=1	=1
4B	4f#	4d	4dd	fe-hilft
8AL	8BL	8dL	4dd	-steuns
8GJ	8c#J	8eJ	.	.
4F#	4d	4f#	8aL	Burgfrei
.	.	.	8bJ	.
4E	4e	4g	4cc#	istaus
=2	=2	=2	=2	=2
4D	4.f#	4a	8ddL	un-al-
.	.	.	8cc#J	.
4E	.	4g#	4b	-ser-ler
.	16eLL	.	.	.
.	16dJJ	.	.	.
4AA;	4c#;	4e;	4a;	Gott,Not,
4BB	8F#L	4b	4dd	ein'die
.	8G#J	.	.	.
=3	=3	=3	=3	=3
4C#	4A#	4e	4cc#	gu-uns
8DL	4B	4d	4b	-tejetzt
8EJ	.	.	.	.
4F#	8f#L	4c#	4a	Wehrhat
.	8eJ	.	.	.
8GL	4d	4B	4b	undbe-
8F#J	.	.	.	.
=4	=4	=4	=4	=4
8EL	8e	8c#	(8gL	Waf--trof-
8DJ	4A	4d	8f#J	.
4AA	.	.	4e)	.
.	8G	8c#	.	.
4D;	4F#;	4d;	4d;	-fen.-fen.
=:|!	=:|!	=:|!	=:|!	=:|!
*>B	*>B	*>B	*>B	*
8DL	8F#L	4d	(4d	Der
8EJ	8GJ	.	.	.
=5	=5	=5	=5	=5
4F#	4A	4c#	4a)	.
8EL	8G#L	4d	4b	alt'
8DJ	8F#J	.	.	.
8C#L	8EL	8eL	4a	bÃ¶-
8DJ	8F#J	8dJ	.	.
4E	4E	4B	4g#	-se
=6	=6	=6	=6	=6
2AA;	2E;	2c#;	2a;	Feind,
4F#	4A	8dL	4d	mit
.	.	8eJ	.	.
8EL	4d	4f#	4a	Ernst
8DJ	.	.	.	.
=7	=7	=7	=7	=7
4G	4d	8gL	4b	er's
.	.	8f#J	.	.
4A	4A	4e	4cc#	jetzt
4D;	4A;	4f#;	4dd;	meint,
4F#	4A	4f#	4cc#	gross
=8	=8	=8	=8	=8
8BBL	8BL	16f#LL	8dd	Macht
.	.	16g#JJ	.	.
8C#J	8eJ	8a	8cc#	und
8DL	8f#L	8aL	4b	viel
8EJ	8eJ	8g#J	.	.
4AA;	4c#;	4e;	4a;	List
8EL	4e	4gn	4b	sein
8F#J	.	.	.	.
=9	=9	=9	=9	=9
4G	8dL	4g	4b	grau-
.	8eJ	.	.	.
8F#L	4f#	8d#L	4a	-sam
8EJ	.	8eJ	.	.
4D#	4B	4f#	8bL	RÃ¼st-
.	.	.	8aJ	.
4E	4B	4e	4g	-zeug
=10	=10	=10	=10	=10
4BB;	4B;	4d#;	4f#;	ist,
4BB	4B	4f#	4dd	auf
4F#	4A	8f#L	4cc#	Erd'n
.	.	8eJ	.	.
4G	8BL	8dnL	4b	ist
.	8c#J	8eJ	.	.
=11	=11	=11	=11	=11
8DL	4d	8f#L	4a	nicht
8C#J	.	8eJ	.	.
4BB	8GL	4d	8bL	sein's
.	8F#J	.	8aJ	.
4C#	4E	8eL	4g	Glei-
.	.	8AJ	.	.
4D	16F#LL	[4d	4f#	.
.	16GJ	.	.	.
.	8AJ	.	.	.
=12	=12	=12	=12	=12
4GG	4B	4d]	2e	.
4AA	8AL	4c#	.	.
.	8GJ	.	.	.
4DD;	4F#;	4A;	4d;	-chen.
==|!	==|!	==|!	==|!	==|!
*-	*-	*-	*-	*-
!!!RWG: Key is interpreted using the Humdrum key tool.
!!!URL-pdf: https://s9.imslp.org/files/imglnks/usimg/6/6b/IMSLP24489-PMLP09471-CCARH_Bach_Chorales.pdf#page=33 Musedata edition
!!!URL-pdf: https://s9.imslp.org/files/imglnks/usimg/7/7a/IMSLP04155-Bach_-_BGA_253-438.pdf#page=26 	Bach-Gesellschaft Ausgabe, Band 39 (pp.175-276) Leipzig: Breitkopf und Härtel, 1892. Plate B.W. XXXIX.
!!!END: 1994/05/18
!!!EMD: Converted from MuseData to Humdrum Dec 19, 2000, by Andreas Kornstaedt using muse2kern.
!!!EED: Craig Stuart Sapp
!!!EEV: 2024/03/31
!!!filter-keyboard: satb2gs
!!!title: @{OTL} (@{SCT})
